64x64/apps/distributor-logo-crux.svg

<svg xmlns="http://www.w3.org/2000/svg" width="64" height="64" version="1.1">
 <g transform="translate(0,-988.3622)">
  <path style="opacity:0.2" d="m 31.959041,993.36162 c -5.369531,0 -9.999983,4.99519 -9.999983,11.19998 0,14 -7.999986,15.4 -7.999986,25.2002 0,10.8245 8.05886,19.5997 17.999969,19.5997 9.941109,0 17.999969,-8.7752 17.999969,-19.5997 0,-9.8002 -7.999986,-11.2002 -7.999986,-25.2002 0,-6.20479 -4.630452,-11.19998 -9.999983,-11.19998 z"/>
  <path style="fill:#3d7284" d="m 31.959041,992.36222 c -5.369531,0 -9.999983,4.9952 -9.999983,11.19998 0,14 -7.999986,15.4 -7.999986,25.2002 0,10.8245 8.05886,19.5997 17.999969,19.5997 9.941109,0 17.999969,-8.7752 17.999969,-19.5997 0,-9.8002 -7.999986,-11.2002 -7.999986,-25.2002 0,-6.20478 -4.630452,-11.19998 -9.999983,-11.19998 z"/>
  <path style="opacity:0.1" d="m 31.959041,1009.3623 c -3.579684,0 -5.99999,3.0328 -5.99999,6.7998 0,8.5002 -5.99999,9.35 -5.99999,15.3 0,6.5721 5.372575,11.9001 11.99998,11.9001 6.627405,0 11.99998,-5.328 11.99998,-11.9001 0,-5.95 -5.99999,-6.7998 -5.99999,-15.3 0,-3.767 -2.420306,-6.7998 -5.99999,-6.7998 z"/>
  <path style="fill:#f4f4f7" d="m 31.959041,1008.3622 c -3.579684,0 -5.959041,3.0328 -5.959041,6.7998 0,8.5002 -6.040939,9.35 -6.040939,15.3 0,6.5721 5.372575,11.9001 11.99998,11.9001 6.627405,0 11.99998,-5.328 11.99998,-11.9001 0,-5.95 -5.959021,-6.7998 -5.959021,-15.3 0,-3.767 -2.461275,-6.7998 -6.040959,-6.7998 z"/>
  <path style="opacity:0.2" d="m 22.99578,1049.3205 c -0.602643,-0.096 -1.13555,-0.2754 -2.303188,-0.7792 -1.73842,-0.7504 -2.549049,-0.9938 -5.730818,-1.72 -1.587082,-0.3622 -2.17856,-0.523 -3.556047,-0.9686 -0.501079,-0.162 -1.168939,-0.3688 -1.4841334,-0.4594 -0.8556362,-0.2462 -1.0824808,-0.342 -1.3959697,-0.5888 -0.4276564,-0.3368 -0.6269587,-0.8562 -0.5505218,-1.4348 0.048974,-0.3708 0.1784037,-0.727 0.5356615,-1.4746 0.4774856,-0.9994 1.6630144,-1.3588 1.7357464,-2.342 0.04279,-0.5788 0.0077,-1.2296 -0.139152,-2.5844 -0.08691,-0.802 -0.106767,-1.0974 -0.1080394,-1.6074 -0.00131,-0.5535 0.00578,-0.168 0.06275,-0.3796 0.214083,-0.7929 0.377015,-1.2503 1.134875,-1.4475 0.219364,-0.058 -0.239605,-0.066 0.789891,-0.086 0.640865,-0.02 1.011891,-0.036 1.094053,-0.056 0.444032,-0.102 0.767311,-0.2678 1.068587,-0.5548 0.286982,-0.2736 0.483392,-1.7526 0.85798,-2.419 0.583106,-1.0284 1.733424,-1.0182 2.672782,-1.0564 0.266321,0.056 0.354868,0.092 0.646553,0.2608 0.293564,0.168 0.376588,0.2364 0.631859,0.5082 0.64239,0.6842 0.949057,1.1064 2.389858,3.2888 1.141952,1.7301 1.490866,2.2835 1.951179,3.0951 0.501445,0.8846 1.405405,2.3034 1.740519,2.732 0.05678,0.074 0.404463,0.5142 0.772609,0.9808 0.368163,0.4674 0.704848,0.9042 0.748206,0.9714 0.691375,0.9644 1.176726,2.0728 1.349378,3.1802 0.05804,0.386 0.06006,0.4512 0.02758,0.893 -0.0412,0.561 -0.077,0.8008 -0.13782,0.9232 -0.0244,0.05 -0.07802,0.184 -0.11914,0.2974 -0.528615,1.4728 -1.846244,2.5778 -3.372734,2.8288 -0.324611,0.054 -0.9683,0.054 -1.312508,0 z"/>
  <path style="fill:#eab108" d="m 22.99578,1048.3211 c -0.602643,-0.096 -1.13555,-0.2754 -2.303188,-0.7792 -1.73842,-0.7504 -2.549049,-0.9938 -5.730818,-1.72 -1.587082,-0.3622 -2.17856,-0.523 -3.556047,-0.9686 -0.501079,-0.162 -1.168939,-0.3688 -1.4841334,-0.4594 -0.8556362,-0.2462 -1.0824808,-0.342 -1.3959697,-0.5888 -0.4276564,-0.3368 -0.6269587,-0.8562 -0.5505218,-1.4348 0.048974,-0.3708 0.1784037,-0.727 0.5356615,-1.4746 0.4774856,-0.9994 1.6630144,-1.3588 1.7357464,-2.342 0.04279,-0.5788 0.0077,-1.2296 -0.139152,-2.5844 -0.08691,-0.8017 -0.106767,-1.0971 -0.1080394,-1.6073 -0.024094,-0.7511 0.4794544,-1.8027 1.1976254,-1.8272 0.219364,-0.058 0,0 0.789891,-0.086 0.640865,-0.02 1.011891,-0.036 1.094053,-0.056 0.444032,-0.102 0.767311,-0.2678 1.068587,-0.5548 0.286982,-0.2736 0.483392,-1.7526 0.85798,-2.419 0.583106,-1.0284 1.733424,-1.0182 2.672782,-1.0564 0.266321,0.056 0.354868,0.092 0.646553,0.2608 0.293564,0.168 0.376588,0.2364 0.631859,0.5082 0.64239,0.6842 0.949057,1.1064 2.389858,3.2888 1.141952,1.7302 1.490866,2.2836 1.951179,3.0952 0.501445,0.8845 1.405405,2.3033 1.740519,2.7319 0.05678,0.074 0.404463,0.5142 0.772609,0.9808 0.368163,0.4674 0.704848,0.9042 0.748206,0.9714 0.691375,0.9644 1.176726,2.0728 1.349378,3.1802 0.05804,0.386 0.06006,0.4512 0.02758,0.893 -0.0412,0.561 -0.077,0.8008 -0.13782,0.9232 -0.0244,0.05 -0.07802,0.184 -0.11914,0.2974 -0.528615,1.4728 -1.846244,2.5778 -3.372734,2.8288 -0.324611,0.054 -0.9683,0.054 -1.312508,0 z"/>
  <path style="opacity:0.2" d="m 46.382253,1048.6537 c 0.460037,-0.3232 0.82758,-0.6856 1.586979,-1.569 1.13055,-1.3152 1.101292,-1.8424 3.43904,-3.7262 1.16615,-0.9392 1.589943,-1.3104 2.547588,-2.2322 0.348399,-0.3352 0.816518,-0.7746 1.04033,-0.9764 0.607543,-0.5476 0.755987,-0.7176 0.913546,-1.0452 0.214998,-0.4468 0.16474,-0.9484 -0.138639,-1.3858 -0.19448,-0.2804 -0.449716,-0.5162 -1.056213,-0.976 -0.810704,-0.6148 -1.042564,-1.1434 -1.510959,-1.9099 -0.2756,-0.4512 0.08408,-1.5922 -0.356327,-2.7492 -0.260554,-0.6844 -0.366694,-0.9316 -0.577389,-1.3454 -0.228622,-0.4488 -0.275454,-0.526 -0.410238,-0.6732 -0.506591,-0.555 -1.069016,-0.7426 -1.779511,-0.594 -0.205713,0.044 -0.326625,0.094 -1.188902,0.4966 -0.537503,0.2496 -1.019858,0.4632 -1.095736,0.4814 -0.409837,0.1 -0.747615,0.094 -1.116606,-0.02 -0.351545,-0.104 -0.630237,0.6274 -1.217412,0.2402 -0.401687,-0.263 -0.832824,-0.5914 -1.14134,-0.6766 -0.428655,-0.118 -0.427241,-0.118 -0.827801,-0.074 -0.385587,0.048 -0.669674,0.158 -0.983354,0.4028 -0.197719,0.154 -0.255711,0.22 -0.428055,0.4746 -0.17312,0.2568 -0.214288,0.3448 -0.313216,0.6688 -0.248921,0.8156 -0.328073,1.2822 -0.617563,3.6359 -0.229225,1.8662 -0.288987,2.4562 -0.333921,3.301 -0.04892,0.9202 -0.209972,2.437 -0.310037,2.9206 -0.0168,0.082 -0.12212,0.5812 -0.233782,1.109 -0.11152,0.5284 -0.20943,1.019 -0.217524,1.091 -0.173239,1.0626 -0.115979,2.1574 0.20041,3.1246 0.11198,0.336 0.13742,0.3898 0.347693,0.7344 0.266918,0.4374 0.396108,0.617 0.49735,0.6912 0.0404,0.03 0.140699,0.116 0.222317,0.192 1.049596,0.9776 2.601004,1.3354 3.971257,0.9172 0.29119,-0.088 0.825145,-0.3514 1.088649,-0.5344 z"/>
  <path style="fill:#eab108" d="m 46.382253,1047.6543 c 0.460037,-0.3232 0.82758,-0.6856 1.586979,-1.569 1.13055,-1.3152 1.101292,-1.8424 3.43904,-3.7262 1.16615,-0.9392 1.589943,-1.3104 2.547588,-2.2322 0.348399,-0.3352 0.816518,-0.7746 1.04033,-0.9764 0.607543,-0.5476 0.755987,-0.7176 0.913546,-1.0452 0.214998,-0.4468 0.16474,-0.9484 -0.138639,-1.3858 -0.19448,-0.2804 -0.449716,-0.5162 -1.056213,-0.9759 -0.810704,-0.6148 -1.142326,-1.1434 -1.610721,-1.91 -0.275599,-0.4512 0.08408,-1.5922 -0.356327,-2.7492 -0.260554,-0.6844 -0.266932,-0.9316 -0.477627,-1.3454 -0.228622,-0.4488 -0.275454,-0.526 -0.410238,-0.6732 -0.506591,-0.555 -1.069016,-0.7424 -1.779511,-0.5938 -0.205713,0.044 -0.326625,0.094 -1.188902,0.4966 -0.537503,0.2494 -1.019858,0.463 -1.095736,0.4812 -0.409837,0.1 -0.747615,0.094 -1.116606,-0.02 -0.351545,-0.104 -0.630237,0.6276 -1.217412,0.2402 -0.401687,-0.263 -0.832824,-0.5914 -1.14134,-0.6766 -0.428655,-0.118 -0.427241,-0.118 -0.827801,-0.074 -0.385587,0.048 -0.669674,0.158 -0.983354,0.4028 -0.197719,0.154 -0.255711,0.22 -0.428055,0.4746 -0.17312,0.2568 -0.214288,0.3448 -0.313216,0.6688 -0.248921,0.8156 -0.328073,1.2822 -0.617563,3.636 -0.229225,1.8661 -0.288987,2.4561 -0.333921,3.3009 -0.04892,0.9202 -0.209972,2.4372 -0.310037,2.9208 -0.0168,0.082 -0.12212,0.581 -0.233782,1.109 -0.11152,0.5282 -0.20943,1.019 -0.217524,1.091 -0.173239,1.0626 -0.115979,2.1574 0.20041,3.1246 0.11198,0.336 0.13742,0.3898 0.347693,0.7344 0.266918,0.4374 0.396108,0.617 0.49735,0.6912 0.0404,0.03 0.140699,0.116 0.222317,0.192 1.049596,0.9774 2.601004,1.3354 3.971257,0.9172 0.29119,-0.088 0.825145,-0.3514 1.088649,-0.5344 z"/>
  <circle style="opacity:0.1" cx="27.959" cy="1003.362" r="4"/>
  <circle style="fill:#f4f4f7" cx="27.959" cy="1002.362" r="4"/>
  <circle style="fill:#f4f4f7" cx="27.959" cy="1002.362" r="2"/>
  <path style="opacity:0.1" d="m 37.959031,1008.3622 c 0,3.8662 -2.686288,7 -5.99999,7 -3.313702,0 -5.99999,-3.1338 -5.99999,-7 z"/>
  <path style="fill:#f77d00" d="m 37.959031,1007.5622 c 0,3.8662 -2.686288,6.8 -5.99999,6.8 -3.313702,0 -5.99999,-2.9338 -5.99999,-6.8 z"/>
  <circle style="opacity:0.1" cx="35.959" cy="1003.362" r="4"/>
  <circle style="fill:#f4f4f7" cx="35.959" cy="1002.362" r="4"/>
  <circle style="fill:#f4f4f7" cx="35.959" cy="1002.362" r="2"/>
  <path style="fill:#eab108" d="m 37.959031,1007.6956 c 0,0.6666 -2.686288,4.6666 -5.99999,4.6666 -3.313702,0 -5.99999,-4 -5.99999,-4.6666 0,-1.841 2.686288,-3.3334 5.99999,-3.3334 3.313702,0 5.99999,1.4924 5.99999,3.3334 z"/>
  <path style="fill:#f4f4f7;opacity:0.2" transform="translate(0,988.3622)" d="M 50.587891 40.0625 C 50.427334 40.057156 50.257702 40.072225 50.080078 40.109375 C 49.874365 40.153375 49.752902 40.202869 48.890625 40.605469 C 48.353122 40.854869 47.8708 41.069691 47.794922 41.087891 C 47.385085 41.187891 47.048679 41.182359 46.679688 41.068359 C 46.328142 40.964359 46.048113 41.695994 45.460938 41.308594 C 45.05925 41.045594 44.628828 40.716059 44.320312 40.630859 C 43.891658 40.512859 43.892747 40.512641 43.492188 40.556641 C 43.1066 40.604641 42.823446 40.716137 42.509766 40.960938 C 42.312047 41.114937 42.254375 41.180947 42.082031 41.435547 C 41.908911 41.692347 41.866506 41.779516 41.767578 42.103516 C 41.518657 42.919116 41.439881 43.386434 41.150391 45.740234 C 40.921166 47.606334 40.86134 48.196216 40.816406 49.041016 C 40.767486 49.961216 40.605924 51.477337 40.505859 51.960938 C 40.489059 52.042938 40.3851 52.542312 40.273438 53.070312 C 40.161918 53.598512 40.062781 54.088156 40.054688 54.160156 C 39.963724 54.718103 39.942141 55.285322 39.982422 55.837891 C 39.998168 55.611707 40.018035 55.38497 40.054688 55.160156 C 40.062781 55.088156 40.161918 54.598512 40.273438 54.070312 C 40.3851 53.542312 40.489059 53.042938 40.505859 52.960938 C 40.605924 52.477337 40.767486 50.959263 40.816406 50.039062 C 40.86134 49.194263 40.921166 48.604381 41.150391 46.738281 C 41.439881 44.384481 41.518657 43.919116 41.767578 43.103516 C 41.866506 42.779516 41.908911 42.690394 42.082031 42.433594 C 42.254375 42.178994 42.312047 42.112984 42.509766 41.958984 C 42.823446 41.714184 43.1066 41.604641 43.492188 41.556641 C 43.892747 41.512641 43.891658 41.512859 44.320312 41.630859 C 44.628828 41.716059 45.05925 42.043641 45.460938 42.306641 C 46.048113 42.694041 46.328142 41.962406 46.679688 42.066406 C 47.048679 42.180406 47.385085 42.187891 47.794922 42.087891 C 47.8708 42.069691 48.353122 41.854869 48.890625 41.605469 C 49.752902 41.202869 49.874365 41.153375 50.080078 41.109375 C 50.790573 40.960775 51.352784 41.148125 51.859375 41.703125 C 51.994159 41.850325 52.040909 41.928153 52.269531 42.376953 C 52.480226 42.790753 52.487493 43.036303 52.748047 43.720703 C 53.188454 44.877703 52.827917 46.019503 53.103516 46.470703 C 53.571911 47.237303 53.90414 47.766059 54.714844 48.380859 C 55.321341 48.840559 55.577004 49.077022 55.771484 49.357422 C 55.840749 49.457285 55.892815 49.560876 55.935547 49.666016 C 56.110606 49.238737 56.057923 48.770398 55.771484 48.357422 C 55.577004 48.077022 55.321341 47.840559 54.714844 47.380859 C 53.90414 46.766059 53.571911 46.237303 53.103516 45.470703 C 52.827917 45.019503 53.188454 43.879656 52.748047 42.722656 C 52.487493 42.038256 52.480226 41.790753 52.269531 41.376953 C 52.040909 40.928153 51.994159 40.850325 51.859375 40.703125 C 51.479432 40.286875 51.069559 40.078531 50.587891 40.0625 z"/>
  <path style="fill:#3d7284" d="m 46.861258,1034.4598 c -2.303424,0 -2.320588,-1.9136 -2.78048,-4.1708 -0.511647,-2.5112 -0.838676,-3.963 3.170903,-4.1708 3.646857,-1.71 4.008189,8.2078 -0.390423,8.3416 z"/>
  <path style="fill:#f4f4f7;opacity:0.2" transform="translate(0,988.3622)" d="M 17.679688 40 C 16.74033 40.0382 15.590919 40.028241 15.007812 41.056641 C 14.633224 41.723041 14.437373 43.202963 14.150391 43.476562 C 13.849115 43.763562 13.52411 43.92925 13.080078 44.03125 C 12.997916 44.05125 12.627193 44.065938 11.986328 44.085938 C 11.196437 44.171938 11.41663 44.113875 11.197266 44.171875 C 10.479095 44.196375 9.975906 45.2489 10 46 C 10.000519 46.208277 10.032958 46.470509 10.042969 46.65625 C 10.146363 45.962348 10.581998 45.192864 11.197266 45.171875 C 11.41663 45.113875 11.196437 45.171938 11.986328 45.085938 C 12.627193 45.065938 12.997916 45.049297 13.080078 45.029297 C 13.52411 44.927297 13.849115 44.761609 14.150391 44.474609 C 14.437373 44.201009 14.633224 42.723041 15.007812 42.056641 C 15.590919 41.028241 16.74033 41.0382 17.679688 41 C 17.946009 41.056 18.034487 41.090966 18.326172 41.259766 C 18.619736 41.427766 18.703713 41.497731 18.958984 41.769531 C 19.601374 42.453731 19.906855 42.874241 21.347656 45.056641 C 22.489608 46.786841 22.838515 47.340744 23.298828 48.152344 C 23.800273 49.036844 24.705902 50.456166 25.041016 50.884766 C 25.097796 50.958766 25.444354 51.398634 25.8125 51.865234 C 26.180663 52.332634 26.517189 52.768738 26.560547 52.835938 C 27.251922 53.800338 27.737504 54.910178 27.910156 56.017578 C 27.915619 56.053906 27.915434 56.06643 27.919922 56.097656 C 27.925941 56.027467 27.931341 55.994021 27.9375 55.910156 C 27.96998 55.468356 27.968196 55.403578 27.910156 55.017578 C 27.737504 53.910178 27.251922 52.802291 26.560547 51.837891 C 26.517189 51.770691 26.180663 51.332634 25.8125 50.865234 C 25.444354 50.398634 25.097796 49.958766 25.041016 49.884766 C 24.705902 49.456166 23.800273 48.038797 23.298828 47.154297 C 22.838515 46.342697 22.489608 45.788794 21.347656 44.058594 C 19.906855 41.876194 19.601374 41.453731 18.958984 40.769531 C 18.703713 40.497731 18.619736 40.429719 18.326172 40.261719 C 18.034487 40.092919 17.946009 40.056 17.679688 40 z M 10.246094 50.167969 C 10.245615 50.174759 10.246594 50.184637 10.246094 50.191406 C 10.173362 51.174606 8.9892043 51.533803 8.5117188 52.533203 C 8.154461 53.280803 8.0235834 53.637013 7.9746094 54.007812 C 7.9400579 54.269355 7.9692146 54.516235 8.0429688 54.742188 C 8.1146003 54.443458 8.2341428 54.11406 8.5117188 53.533203 C 8.9892043 52.533803 10.173362 52.174606 10.246094 51.191406 C 10.267779 50.898075 10.268823 50.580547 10.246094 50.167969 z"/>
  <path style="opacity:0.1;fill:#f4f4f7" transform="translate(0,988.3622)" d="M 31.958984 4 C 26.589453 4 21.958984 8.9944387 21.958984 15.199219 C 21.958984 29.199219 13.958984 30.600191 13.958984 40.400391 C 13.958984 40.577121 13.980105 40.74822 13.984375 40.923828 C 14.248381 31.567014 21.958984 29.960115 21.958984 16.199219 C 21.958984 9.9944387 26.589453 5 31.958984 5 C 37.328515 5 41.958984 9.9944387 41.958984 16.199219 C 41.958984 29.960115 49.669587 31.567014 49.933594 40.923828 C 49.937863 40.74822 49.958984 40.577121 49.958984 40.400391 C 49.958984 30.600191 41.958984 29.199219 41.958984 15.199219 C 41.958984 8.9944387 37.328515 4 31.958984 4 z"/>
 </g>
</svg>

<svg xmlns="http://www.w3.org/2000/svg" width="64" height="64"><g transform="translate(0 -988.362)"><path style="opacity:.2" d="M31.959 993.362c-5.37 0-10 4.995-10 11.2 0 14-8 15.4-8 25.2 0 10.824 8.059 19.6 18 19.6s18-8.776 18-19.6c0-9.8-8-11.2-8-25.2 0-6.205-4.63-11.2-10-11.2z"/><path style="fill:#3d7284" d="M31.959 992.362c-5.37 0-10 4.995-10 11.2 0 14-8 15.4-8 25.2 0 10.825 8.059 19.6 18 19.6s18-8.775 18-19.6c0-9.8-8-11.2-8-25.2 0-6.205-4.63-11.2-10-11.2z"/><path style="opacity:.1" d="M31.959 1009.362c-3.58 0-6 3.033-6 6.8 0 8.5-6 9.35-6 15.3 0 6.572 5.373 11.9 12 11.9s12-5.328 12-11.9c0-5.95-6-6.8-6-15.3 0-3.767-2.42-6.8-6-6.8z"/><path style="fill:#f4f4f7" d="M31.959 1008.362c-3.58 0-5.959 3.033-5.959 6.8 0 8.5-6.04 9.35-6.04 15.3 0 6.572 5.372 11.9 11.999 11.9 6.627 0 12-5.328 12-11.9 0-5.95-5.959-6.8-5.959-15.3 0-3.767-2.461-6.8-6.041-6.8z"/><path style="opacity:.2" d="M22.996 1049.32c-.603-.095-1.136-.275-2.303-.779-1.739-.75-2.55-.993-5.731-1.72-1.587-.362-2.179-.523-3.556-.968a60.206 60.206 0 0 0-1.484-.46c-.856-.246-1.083-.342-1.396-.588-.428-.337-.627-.857-.55-1.435.048-.371.178-.727.535-1.475.477-1 1.663-1.359 1.736-2.342.042-.579.007-1.23-.14-2.584-.087-.802-.106-1.098-.108-1.608-.001-.553.006-.168.063-.38.214-.792.377-1.25 1.135-1.447.22-.058-.24-.066.79-.086.64-.02 1.012-.036 1.094-.056.444-.102.767-.268 1.068-.555.287-.273.484-1.752.858-2.419.584-1.028 1.734-1.018 2.673-1.056.267.056.355.092.647.26.293.169.376.237.632.509.642.684.949 1.106 2.39 3.289 1.141 1.73 1.49 2.283 1.95 3.095.502.885 1.406 2.303 1.741 2.732.057.074.405.514.773.98.368.468.705.905.748.972.691.964 1.177 2.073 1.35 3.18.057.386.06.452.027.893-.041.561-.077.801-.138.924a4.15 4.15 0 0 0-.119.297c-.529 1.473-1.846 2.578-3.373 2.829a5.336 5.336 0 0 1-1.312 0z"/><path style="fill:#eab108" d="M22.996 1048.321c-.603-.096-1.136-.275-2.303-.78-1.739-.75-2.55-.993-5.731-1.72-1.587-.361-2.179-.522-3.556-.968a60.206 60.206 0 0 0-1.484-.46c-.856-.245-1.083-.341-1.396-.588-.428-.337-.627-.856-.55-1.435.048-.37.178-.727.535-1.474.477-1 1.663-1.36 1.736-2.342.042-.58.007-1.23-.14-2.585-.087-.801-.106-1.097-.108-1.607-.024-.751.48-1.803 1.198-1.827.22-.058 0 0 .79-.086.64-.02 1.012-.036 1.094-.056.444-.102.767-.268 1.068-.555.287-.274.484-1.753.858-2.419.584-1.028 1.734-1.018 2.673-1.056.267.056.355.092.647.26.293.168.376.237.632.509.642.684.949 1.106 2.39 3.288 1.141 1.73 1.49 2.284 1.95 3.096.502.884 1.406 2.303 1.741 2.732.057.074.405.514.773.98.368.468.705.905.748.972.691.964 1.177 2.073 1.35 3.18.057.386.06.451.027.893-.041.56-.077.8-.138.923a4.15 4.15 0 0 0-.119.298c-.529 1.472-1.846 2.577-3.373 2.828a5.336 5.336 0 0 1-1.312 0z"/><path style="opacity:.2" d="M46.382 1048.654c.46-.323.828-.686 1.587-1.57 1.13-1.314 1.102-1.842 3.44-3.725 1.165-.94 1.59-1.31 2.547-2.233a55.99 55.99 0 0 1 1.04-.976c.608-.548.756-.718.914-1.045.215-.447.164-.949-.139-1.386-.194-.28-.45-.516-1.056-.976-.81-.615-1.043-1.143-1.511-1.91-.276-.451.084-1.592-.356-2.75-.261-.684-.367-.93-.578-1.345-.228-.448-.275-.526-.41-.673-.507-.555-1.069-.742-1.78-.594-.205.044-.326.094-1.188.497-.538.25-1.02.463-1.096.481-.41.1-.748.094-1.117-.02-.351-.104-.63.628-1.217.24-.402-.263-.833-.591-1.142-.676-.428-.118-.427-.118-.827-.074-.386.048-.67.158-.984.403-.197.154-.255.22-.428.474-.173.257-.214.345-.313.669-.249.816-.328 1.282-.618 3.636-.229 1.866-.289 2.456-.333 3.3-.05.921-.21 2.438-.31 2.921l-.234 1.11c-.112.528-.21 1.018-.218 1.09-.173 1.063-.116 2.158.2 3.125.113.336.138.39.348.734.267.438.396.617.498.692.04.03.14.116.222.192a4.135 4.135 0 0 0 3.971.917 5.047 5.047 0 0 0 1.089-.535z"/><path style="fill:#eab108" d="M46.382 1047.654c.46-.323.828-.685 1.587-1.569 1.13-1.315 1.102-1.842 3.44-3.726 1.165-.94 1.59-1.31 2.547-2.232a55.99 55.99 0 0 1 1.04-.976c.608-.548.756-.718.914-1.046.215-.447.164-.948-.139-1.386-.194-.28-.45-.516-1.056-.975-.81-.615-1.142-1.144-1.61-1.91-.276-.452.083-1.593-.357-2.75-.26-.684-.267-.931-.478-1.345-.228-.449-.275-.526-.41-.673-.507-.555-1.069-.743-1.78-.594-.205.044-.326.094-1.188.497-.538.249-1.02.463-1.096.48-.41.1-.748.095-1.117-.02-.351-.103-.63.628-1.217.241-.402-.263-.833-.591-1.142-.677-.428-.118-.427-.118-.827-.074-.386.048-.67.158-.984.403-.197.154-.255.22-.428.475-.173.257-.214.345-.313.669-.249.815-.328 1.282-.618 3.636-.229 1.866-.289 2.456-.333 3.3-.05.92-.21 2.438-.31 2.921l-.234 1.11c-.112.527-.21 1.018-.218 1.09-.173 1.063-.116 2.158.2 3.125.113.336.138.39.348.734.267.438.396.617.498.691.04.03.14.116.222.192a4.135 4.135 0 0 0 3.971.918 5.047 5.047 0 0 0 1.089-.535z"/><circle style="opacity:.1" cx="27.959" cy="1003.362" r="4"/><circle style="fill:#f4f4f7" cx="27.959" cy="1002.362" r="4"/><circle style="fill:#f4f4f7" cx="27.959" cy="1002.362" r="2"/><path style="opacity:.1" d="M37.959 1008.362c0 3.866-2.686 7-6 7s-6-3.134-6-7z"/><path style="fill:#f77d00" d="M37.959 1007.562c0 3.866-2.686 6.8-6 6.8s-6-2.934-6-6.8z"/><circle style="opacity:.1" cx="35.959" cy="1003.362" r="4"/><circle style="fill:#f4f4f7" cx="35.959" cy="1002.362" r="4"/><circle style="fill:#f4f4f7" cx="35.959" cy="1002.362" r="2"/><path style="fill:#eab108" d="M37.959 1007.696c0 .666-2.686 4.666-6 4.666s-6-4-6-4.666c0-1.841 2.686-3.334 6-3.334s6 1.493 6 3.334z"/><path style="fill:#f4f4f7;opacity:.2" transform="translate(0 988.362)" d="M50.588 40.063c-.16-.006-.33.01-.508.046-.206.044-.327.094-1.19.496-.537.25-1.02.465-1.095.483-.41.1-.746.094-1.115-.02-.352-.104-.632.628-1.22.24-.4-.262-.831-.592-1.14-.677-.428-.118-.427-.118-.828-.074-.385.048-.669.16-.982.404-.198.154-.256.22-.428.475-.173.256-.215.344-.314.668-.25.815-.328 1.282-.618 3.636-.229 1.866-.289 2.456-.334 3.301-.049.92-.21 2.436-.31 2.92-.017.082-.12.581-.233 1.11-.111.528-.21 1.017-.218 1.09a7.206 7.206 0 0 0-.073 1.677 7.4 7.4 0 0 1 .073-.678c.008-.072.107-.561.218-1.09.112-.528.216-1.027.233-1.11.1-.483.261-2 .31-2.92.045-.846.105-1.436.334-3.302.29-2.354.369-2.819.618-3.634.099-.324.14-.414.314-.67.172-.255.23-.321.428-.475.313-.245.597-.354.982-.402.4-.044.4-.044.828.074.309.085.74.413 1.14.676.588.387.868-.345 1.22-.24a1.97 1.97 0 0 0 1.115.02c.076-.017.558-.232 1.096-.482.862-.402.983-.452 1.19-.496.71-.148 1.272.04 1.778.594.135.147.182.225.41.674.211.414.218.66.479 1.344.44 1.157.08 2.299.356 2.75.468.766.8 1.295 1.61 1.91.607.46.863.696 1.057.976.07.1.122.204.165.309.175-.427.122-.896-.165-1.309-.194-.28-.45-.516-1.056-.976-.81-.615-1.143-1.144-1.611-1.91-.276-.451.084-1.591-.356-2.748-.26-.685-.268-.932-.478-1.346-.23-.449-.276-.527-.41-.674-.38-.416-.79-.624-1.272-.64z"/><path style="fill:#3d7284" d="M46.861 1034.46c-2.303 0-2.32-1.914-2.78-4.171-.512-2.511-.839-3.963 3.17-4.17 3.648-1.71 4.009 8.207-.39 8.34z"/><path style="fill:#f4f4f7;opacity:.2" transform="translate(0 988.362)" d="M17.68 40c-.94.038-2.09.028-2.672 1.057-.375.666-.57 2.146-.858 2.42-.3.287-.626.452-1.07.554-.082.02-.453.035-1.094.055-.79.086-.57.028-.789.086C10.48 44.196 9.976 45.249 10 46c0 .208.033.47.043.656.103-.694.539-1.463 1.154-1.484.22-.058 0 0 .79-.086.64-.02 1.01-.037 1.093-.057.444-.102.77-.267 1.07-.554.287-.274.483-1.752.858-2.418.583-1.029 1.732-1.019 2.672-1.057.266.056.354.091.646.26.294.168.378.238.633.51.642.684.948 1.104 2.389 3.287 1.142 1.73 1.49 2.284 1.95 3.095.502.885 1.408 2.304 1.743 2.733.057.074.403.514.771.98.369.468.705.904.749.97.69.965 1.177 2.075 1.35 3.183.005.036.004.048.009.08.006-.07.011-.104.017-.188.033-.442.031-.506-.027-.892-.172-1.108-.658-2.216-1.35-3.18-.043-.067-.38-.505-.747-.973-.369-.466-.715-.906-.772-.98-.335-.429-1.24-1.846-1.742-2.73-.46-.812-.81-1.366-1.951-3.096-1.441-2.183-1.747-2.605-2.389-3.29-.255-.271-.34-.34-.633-.507-.292-.17-.38-.206-.646-.262zm-7.434 10.168v.023c-.073.984-1.257 1.343-1.734 2.342-.358.748-.488 1.104-.537 1.475-.035.261-.006.508.068.734.072-.299.191-.628.469-1.209.477-1 1.661-1.358 1.734-2.342a7.81 7.81 0 0 0 0-1.023z"/><path style="opacity:.1;fill:#f4f4f7" transform="translate(0 988.362)" d="M31.959 4c-5.37 0-10 4.994-10 11.2 0 14-8 15.4-8 25.2 0 .177.021.348.025.524.264-9.357 7.975-10.964 7.975-24.725 0-6.205 4.63-11.199 10-11.199s10 4.994 10 11.2c0 13.76 7.71 15.367 7.975 24.724.004-.176.025-.347.025-.524 0-9.8-8-11.2-8-25.2 0-6.206-4.63-11.2-10-11.2z"/></g></svg>
